wp-content/plugins/wp-rocket/assets/img/infinite.svg

<svg fill="none" height="32" viewBox="0 0 49 32" width="49" xmlns="http://www.w3.org/2000/svg"><g clip-rule="evenodd" fill-rule="evenodd"><path d="m15.6 27.95c-6.82071 0-12.35-5.5293-12.35-12.35 0-6.82071 5.52929-12.35 12.35-12.35 6.8207 0 12.35 5.52929 12.35 12.35 0 6.8207-5.5293 12.35-12.35 12.35z" fill="#ffd147"/><path d="m32.4984 27.95c-6.8207 0-12.35-5.5293-12.35-12.35 0-6.82071 5.5293-12.35 12.35-12.35s12.35 5.52929 12.35 12.35c0 6.8207-5.5293 12.35-12.35 12.35z" fill="#f56f46"/><path d="m24.0484 6.59375c2.4005 2.25302 3.9 5.45475 3.9 9.00675 0 3.5519-1.4995 6.7536-3.9 9.0066-2.4005-2.253-3.9-5.4547-3.9-9.0066 0-3.552 1.4995-6.75373 3.9-9.00675z" fill="#172153"/></g></svg>

<svg width="49" height="32" viewBox="0 0 49 32" fill="none" xmlns="http://www.w3.org/2000/svg">
<path fill-rule="evenodd" clip-rule="evenodd" d="M15.6 27.95C8.77929 27.95 3.25 22.4207 3.25 15.6C3.25 8.77929 8.77929 3.25 15.6 3.25C22.4207 3.25 27.95 8.77929 27.95 15.6C27.95 22.4207 22.4207 27.95 15.6 27.95Z" fill="#FFD147"/>
<path fill-rule="evenodd" clip-rule="evenodd" d="M32.4984 27.95C25.6777 27.95 20.1484 22.4207 20.1484 15.6C20.1484 8.77929 25.6777 3.25 32.4984 3.25C39.3191 3.25 44.8484 8.77929 44.8484 15.6C44.8484 22.4207 39.3191 27.95 32.4984 27.95Z" fill="#F56F46"/>
<path fill-rule="evenodd" clip-rule="evenodd" d="M24.0484 6.59375C26.4489 8.84677 27.9484 12.0485 27.9484 15.6005C27.9484 19.1524 26.4489 22.3541 24.0484 24.6071C21.6479 22.3541 20.1484 19.1524 20.1484 15.6005C20.1484 12.0485 21.6479 8.84677 24.0484 6.59375Z" fill="#172153"/>
</svg>
